src/parts/facialHair/BeardLight.svg

<svg>
  <g
    id="Facial-Hair/Beard-Light"
    transform="translate(49.000000, 72.000000)"
  >
    <defs>
      <path
        id="BeardLight-path1"
        d="M101.428403,98.1685688 C98.9148372,100.462621 96.23722,101.494309 92.8529444,100.772863 C92.2705777,100.648833 89.8963391,96.2345713 83.9998344,96.2345713 C78.1033297,96.2345713 75.7294253,100.648833 75.1467245,100.772863 C71.7624488,101.494309 69.0848316,100.462621 66.5712661,98.1685688 C61.8461772,93.855604 57.9166219,87.9081858 60.2778299,81.4191814 C61.5083844,78.0369425 63.5097479,74.3237342 67.1506257,73.2459109 C71.0384163,72.0955419 76.4968931,73.2439051 80.4147542,72.4582708 C81.6840664,72.2035248 83.0706538,71.7508657 83.9998344,71 C84.929015,71.7508657 86.3159365,72.2035248 87.5845805,72.4582708 C91.5027758,73.2439051 96.9612525,72.0955419 100.849043,73.2459109 C104.489921,74.3237342 106.491284,78.0369425 107.722173,81.4191814 C110.083381,87.9081858 106.153826,93.855604 101.428403,98.1685688 M140.081033,26 C136.670693,34.4002532 137.987774,44.8580348 137.356666,53.6758724 C136.844038,60.8431942 135.33712,71.5857526 128.972858,76.214531 C125.718361,78.5816138 119.79436,82.5598986 115.54187,81.4501943 C112.614539,80.6863848 112.302182,72.290096 108.455284,69.1469801 C104.09172,65.5823153 98.6429854,64.0160432 93.1491481,64.2578722 C90.7785381,64.3622683 85.9841367,64.3374908 83.9999331,66.1604584 C82.0157295,64.3374908 77.2216647,64.3622683 74.8510547,64.2578722 C69.3568808,64.0160432 63.9081467,65.5823153 59.5445817,69.1469801 C55.6976839,72.290096 55.3856641,80.6863848 52.4583326,81.4501943 C48.2058427,82.5598986 42.2818421,78.5816138 39.0270077,76.214531 C32.6624096,71.5857526 31.1561652,60.8431942 30.642864,53.6758724 C30.0120926,44.8580348 31.3291729,34.4002532 27.9188335,26 C26.2597768,26 27.3540339,42.1288693 27.3540339,42.1288693 L27.3540339,62.4851205 C27.3856735,77.7732046 36.935095,100.655445 58.1080116,109.393004 C63.2861266,111.52982 75.0153111,115 83.9999331,115 C92.9845551,115 104.71374,111.860188 109.891855,109.723371 C131.064771,100.985813 140.614193,77.7732046 140.646169,62.4851205 L140.646169,42.1288693 C140.646169,42.1288693 141.740089,26 140.081033,26"
      />
    </defs>
    <mask
      id="BeardLight-mask1"
      fill="white"
    >
      <use href="#BeardLight-path1" />
    </mask>
    <use
      class="CustomColor"
      fill="var(--avataaar-facial-hair-color)"
      fillRule="evenodd"
      href="#BeardLight-path1"
    />
  </g>
</svg>

<svg>
  <g id="Facial-Hair/Beard-Light" transform="translate(49 72)">
    <defs>
      <path id="BeardLight-path1" d="M101.428 98.169c-2.513 2.294-5.19 3.325-8.575 2.604-.582-.124-2.957-4.538-8.853-4.538-5.897 0-8.27 4.414-8.853 4.538-3.385.721-6.062-.31-8.576-2.604-4.725-4.313-8.654-10.26-6.293-16.75 1.23-3.382 3.232-7.095 6.873-8.173 3.887-1.15 9.346-.002 13.264-.788 1.27-.254 2.656-.707 3.585-1.458.929.75 2.316 1.204 3.585 1.458 3.918.786 9.376-.362 13.264.788 3.64 1.078 5.642 4.79 6.873 8.173 2.361 6.49-1.568 12.437-6.294 16.75M140.081 26c-3.41 8.4-2.093 18.858-2.724 27.676-.513 7.167-2.02 17.91-8.384 22.539-3.255 2.367-9.179 6.345-13.431 5.235-2.927-.764-3.24-9.16-7.087-12.303-4.363-3.565-9.812-5.131-15.306-4.89-2.37.105-7.165.08-9.15 1.903-1.983-1.823-6.777-1.798-9.148-1.902-5.494-.242-10.943 1.324-15.306 4.889-3.847 3.143-4.16 11.54-7.087 12.303-4.252 1.11-10.176-2.868-13.431-5.235-6.365-4.63-7.87-15.372-8.384-22.54-.63-8.817.686-19.275-2.724-27.675-1.66 0-.565 16.129-.565 16.129v20.356c.032 15.288 9.581 38.17 30.754 46.908C63.286 111.53 75.015 115 84 115s20.714-3.14 25.892-5.277c21.173-8.737 30.722-31.95 30.754-47.238V42.13S141.74 26 140.081 26"/>
    </defs>
    <mask id="BeardLight-mask1" fill="#fff">
      <use href="#BeardLight-path1"/>
    </mask>
    <use fill="var(--avataaar-facial-hair-color)" class="CustomColor" href="#BeardLight-path1"/>
  </g>
</svg>
